X: 1
T: Cropie's
M: 4/4
L: 1/8
R: strathspey
K: Gmaj
G>E|D<GG>E F>GA>F|G>Bd<B e2e>f|g>be<g d>gB<G|E<AA>F G>FE>D|
D<GG>E F>GA>F|G>Bd<B e2e>f|g>be<g d>gB<G|E>A G/F/E/D/ G2:|
G>B|e>fg>e a>ge>d|e/f/g f>e d2d>B|c>de>c B>cd>B|E<AA>F G>FE>D|
D<GG>E F>GA>F|G>Bd<B e2e>f|g>be<g d>gB<G|E>A G/F/E/D/ G2:|
